www/assets/icons/home.svg

<svg width="24" height="24" viewBox="0 0 24 24" xmlns="http://www.w3.org/2000/svg" fill='currentColor'><path d="M10 20.5V14.5H14V20.5H19V12.5H22L12 3.5L2 12.5H5V20.5H10Z"/></svg>

<svg xmlns="http://www.w3.org/2000/svg" width="24" height="24" viewBox="0 0 24 24" fill='currentColor'><path d="M10 20.5v-6h4v6h5v-8h3l-10-9-10 9h3v8z"/></svg>
